Origami/32x32/apps/sirikali.svg

<svg width="32" height="32" version="1" xmlns="http://www.w3.org/2000/svg">
 <rect transform="matrix(0,-1,-1,0,0,0)" x="-31" y="-30" width="28" height="28" rx="1.4" ry="1.4" style="opacity:.2"/>
 <rect transform="matrix(0,-1,-1,0,0,0)" x="-30" y="-30" width="28" height="28" rx="1.4" ry="1.4" style="fill:#1493ca"/>
 <path d="M 3.4003906 2 C 2.6247906 2 2 2.6247906 2 3.4003906 L 2 4.4003906 C 2 3.6247906 2.6247906 3 3.4003906 3 L 28.599609 3 C 29.375209 3 30 3.6247906 30 4.4003906 L 30 3.4003906 C 30 2.6247906 29.375209 2 28.599609 2 L 3.4003906 2 z" style="fill:#ffffff;opacity:.2"/>
 <path d="m16 8c-2.8204 0-5 2.293378-5 5.142578v1.857422h-1.109375c-0.4932 0-0.890625 0.472703-0.890625 0.970703v9.128906c0 0.498 0.397425 0.900391 0.890625 0.900391h12.21875c0.493 0 0.890625-0.402391 0.890625-0.900391v-9.128906c0-0.498-0.398625-1.002703-0.890625-0.970703h-1.109375v-1.857422c0-2.8493-2.18-5.142578-5-5.142578zm0 2c1.7627 0 3 1.361778 3 3.142578v1.857422h-6v-1.857422c0-1.781 1.237-3.142578 3-3.142578zm0 7a2 2 0 0 1 2 2 2 2 0 0 1 -1.048828 1.757812c0.020184 0.079445 0.048828 0.156291 0.048828 0.242188v2c0 0.554-0.446 1-1 1s-1-0.446-1-1v-2c0-0.08523 0.02895-0.161347 0.04883-0.240234a2 2 0 0 1 -1.04883 -1.759766 2 2 0 0 1 2 -2z" style="opacity:.2"/>
 <path d="m16 7c-2.8204 0-5 2.2933782-5 5.142578v1.857422h-1.109375c-0.4932 0-0.890625 0.472703-0.890625 0.970703v9.128906c0 0.498 0.397425 0.900391 0.890625 0.900391h12.21875c0.493 0 0.890625-0.402391 0.890625-0.900391v-9.128906c0-0.498-0.398625-1.002703-0.890625-0.970703h-1.109375v-1.857422c0-2.8492997-2.18-5.142578-5-5.142578zm0 2c1.7627 0 3 1.361778 3 3.142578v1.857422h-6v-1.857422c0-1.781 1.237-3.142578 3-3.142578zm0 7a2 2 0 0 1 2 2 2 2 0 0 1 -1.048828 1.757812c0.020184 0.079445 0.048828 0.156291 0.048828 0.242188v2c0 0.554-0.446 1-1 1s-1-0.446-1-1v-2c0-0.085231 0.028946-0.161347 0.048828-0.240234a2 2 0 0 1 -1.048828 -1.759766 2 2 0 0 1 2 -2z" style="fill:#ffffff"/>
</svg>

<svg xmlns="http://www.w3.org/2000/svg" width="32" height="32" version="1">
 <rect width="28" height="28" x="-31" y="-30" rx="1.4" ry="1.4" transform="matrix(0,-1,-1,0,0,0)" style="opacity:0.2"/>
 <rect style="fill:#1493ca" width="28" height="28" x="-30" y="-30" rx="1.4" ry="1.4" transform="matrix(0,-1,-1,0,0,0)"/>
 <path style="fill:#ffffff;opacity:0.2" d="M 3.4003906 2 C 2.6247906 2 2 2.6247906 2 3.4003906 L 2 4.4003906 C 2 3.6247906 2.6247906 3 3.4003906 3 L 28.599609 3 C 29.375209 3 30 3.6247906 30 4.4003906 L 30 3.4003906 C 30 2.6247906 29.375209 2 28.599609 2 L 3.4003906 2 z"/>
 <path d="m 16,8 c -2.8204,0 -5,2.293378 -5,5.142578 L 11,15 9.890625,15 C 9.397425,15 9,15.472703 9,15.970703 l 0,9.128906 C 9,25.597609 9.397425,26 9.890625,26 l 12.21875,0 C 22.602375,26 23,25.597609 23,25.099609 l 0,-9.128906 C 23,15.472703 22.601375,14.968 22.109375,15 L 21,15 21,13.142578 C 21,10.293278 18.82,8 16,8 Z m 0,2 c 1.7627,0 3,1.361778 3,3.142578 L 19,15 13,15 13,13.142578 C 13,11.361578 14.237,10 16,10 Z m 0,7 a 2,2 0 0 1 2,2 2,2 0 0 1 -1.048828,1.757812 C 16.971356,20.837257 17,20.914103 17,21 l 0,2 c 0,0.554 -0.446,1 -1,1 -0.554,0 -1,-0.446 -1,-1 l 0,-2 c 0,-0.08523 0.02895,-0.161347 0.04883,-0.240234 A 2,2 0 0 1 14,19 2,2 0 0 1 16,17 Z" style="opacity:0.2"/>
 <path style="fill:#ffffff" d="M 16 7 C 13.1796 7 11 9.2933782 11 12.142578 L 11 14 L 9.890625 14 C 9.397425 14 9 14.472703 9 14.970703 L 9 24.099609 C 9 24.597609 9.397425 25 9.890625 25 L 22.109375 25 C 22.602375 25 23 24.597609 23 24.099609 L 23 14.970703 C 23 14.472703 22.601375 13.968 22.109375 14 L 21 14 L 21 12.142578 C 21 9.2932783 18.82 7 16 7 z M 16 9 C 17.7627 9 19 10.361778 19 12.142578 L 19 14 L 13 14 L 13 12.142578 C 13 10.361578 14.237 9 16 9 z M 16 16 A 2 2 0 0 1 18 18 A 2 2 0 0 1 16.951172 19.757812 C 16.971356 19.837257 17 19.914103 17 20 L 17 22 C 17 22.554 16.554 23 16 23 C 15.446 23 15 22.554 15 22 L 15 20 C 15 19.914769 15.028946 19.838653 15.048828 19.759766 A 2 2 0 0 1 14 18 A 2 2 0 0 1 16 16 z"/>
</svg>
